X: 12097
T: Eugene Stratton
R: hornpipe
M: 4/4
K: Gminor
B/B/B F>E D>FB>d|=e>fg>f ^cdAB|c/c/c G>F =E>Gc>B|A>cf>=e g>f_e>c|
B/B/B F>E D>FB>d|=e>fg>f _e>dc>B|g>eB>G E>ba>g|f>de>c B2:|
b>BA>B g>BA>B|=e>fg>a b>fd>B|E>GB>e D>FB>d|c>^cd>=e f>^fg>a|
b>BA>B g>BA>B|=e>fg>a b>fd>B|g>eB>G E>ba>g|f>de>c B2:|

